X: 16463
T: Hag With The Money, The
R: jig
M: 6/8
K: Dmajor
|:Adc A3|AGE G3|Adc A3|GEA GED|
Adc A3|AGE GFG|AGE cde|dcA GED:|
|:ABc d2e|fed edc|ABc dcd|eaa ged|
ABc d2e|fed efg|age cde|dcA GED:|

